icons/duplicate-16.svg

<svg width="16" height="16" viewBox="0 0 16 16" fill="none" xmlns="http://www.w3.org/2000/svg">
<path d="M10.5 3C10.9142 3 11.25 3.33579 11.25 3.75V4.75H12.25C12.6642 4.75 13 5.08579 13 5.5C13 5.91421 12.6642 6.25 12.25 6.25H11.25V7.25C11.25 7.66421 10.9142 8 10.5 8C10.0858 8 9.75 7.66421 9.75 7.25V6.25H8.75C8.33579 6.25 8 5.91421 8 5.5C8 5.08579 8.33579 4.75 8.75 4.75H9.75V3.75C9.75 3.33579 10.0858 3 10.5 3Z" fill="#24292E"/>
<path fill-rule="evenodd" clip-rule="evenodd" d="M6.75 0C5.7835 0 5 0.783502 5 1.75V9.25C5 10.2165 5.7835 11 6.75 11H14.25C15.2165 11 16 10.2165 16 9.25V1.75C16 0.783502 15.2165 0 14.25 0H6.75ZM6.5 1.75C6.5 1.61193 6.61193 1.5 6.75 1.5H14.25C14.3881 1.5 14.5 1.61193 14.5 1.75V9.25C14.5 9.38807 14.3881 9.5 14.25 9.5H6.75C6.61193 9.5 6.5 9.38807 6.5 9.25V1.75Z" fill="#24292E"/>
<path d="M1.75 5C0.783502 5 0 5.7835 0 6.75V14.25C0 15.2165 0.783502 16 1.75 16H9.25C10.2165 16 11 15.2165 11 14.25V12.75C11 12.3358 10.6642 12 10.25 12C9.83579 12 9.5 12.3358 9.5 12.75V14.25C9.5 14.3881 9.38807 14.5 9.25 14.5H1.75C1.61193 14.5 1.5 14.3881 1.5 14.25V6.75C1.5 6.61193 1.61193 6.5 1.75 6.5H3.25C3.66421 6.5 4 6.16421 4 5.75C4 5.33579 3.66421 5 3.25 5H1.75Z" fill="#24292E"/>
</svg>

<svg xmlns="http://www.w3.org/2000/svg" width="16" height="16" viewBox="0 0 16 16"><path d="M10.5 3a.75.75 0 01.75.75v1h1a.75.75 0 010 1.5h-1v1a.75.75 0 01-1.5 0v-1h-1a.75.75 0 010-1.5h1v-1A.75.75 0 0110.5 3z"/><path fill-rule="evenodd" d="M6.75 0A1.75 1.75 0 005 1.75v7.5c0 .966.784 1.75 1.75 1.75h7.5A1.75 1.75 0 0016 9.25v-7.5A1.75 1.75 0 0014.25 0h-7.5zM6.5 1.75a.25.25 0 01.25-.25h7.5a.25.25 0 01.25.25v7.5a.25.25 0 01-.25.25h-7.5a.25.25 0 01-.25-.25v-7.5z"/><path d="M1.75 5A1.75 1.75 0 000 6.75v7.5C0 15.216.784 16 1.75 16h7.5A1.75 1.75 0 0011 14.25v-1.5a.75.75 0 00-1.5 0v1.5a.25.25 0 01-.25.25h-7.5a.25.25 0 01-.25-.25v-7.5a.25.25 0 01.25-.25h1.5a.75.75 0 000-1.5h-1.5z"/></svg>
